assets/images/avatar/Avatar 24.svg

<svg fill="none" height="128" viewBox="0 0 128 128" width="128" xmlns="http://www.w3.org/2000/svg" xmlns:xlink="http://www.w3.org/1999/xlink"><mask id="a" height="126" maskUnits="userSpaceOnUse" width="128" x="0" y="1"><path clip-rule="evenodd" d="m62.6568 1.29053c19.1777-.947177 37.7832 7.57143 49.9662 22.46877 12.397 15.1584 17.244 35.2814 12.902 54.4033-4.344 19.1286-17.322 35.3304-35.1191 43.4384-17.3231 7.892-37.0935 5.648-54.1761-2.756-16.9201-8.324-31.21756-22.4864-34.85639-41.0454-3.52833-17.9954 5.67569-35.0983 17.12449-49.3915 11.376-14.2024 26.0264-26.22202 44.1589-27.11757z" fill="#eff6f7" fill-rule="evenodd"/></mask><g mask="url(#a)"><path clip-rule="evenodd" d="m62.6568 1.29053c19.1777-.947177 37.7832 7.57143 49.9662 22.46877 12.397 15.1584 17.244 35.2814 12.902 54.4033-4.344 19.1286-17.322 35.3304-35.1191 43.4384-17.3231 7.892-37.0935 5.648-54.1761-2.756-16.9201-8.324-31.21756-22.4864-34.85639-41.0454-3.52833-17.9954 5.67569-35.0983 17.12449-49.3915 11.376-14.2024 26.0264-26.22202 44.1589-27.11757z" fill="#eff6f7" fill-rule="evenodd"/><path d="m56.9478 69.5399c0 8.4632-2.5752 14.5066-10.816 19.0384-10.0388 5.5193-16.3047 5.3242-25.0209 10.6667-10.4747 6.43-12.74211 14.909-14.71088 26.493h110.85398c0-1.359-4.571-12.995-6.564-19.407-1.908-6.096-6.754-8.939-17.5304-13.3458-12.6476-5.181-11.52-15.4453-10.0784-28.0594 1.2464-10.9014-26.1334-10.0846-26.1334 4.6141z" fill="#e7baef"/><path d="m82.3375 78.4206c-.2803-3.4651.0549-7.3143.512-11.4377-7.9756.9356-18.1851.9813-25.8529 1.7158-.0213.2774-.0488.5516-.0488.8412 0 5.7904-1.219 10.4533-4.6171 14.272 4.5135 4.7055 24.0579 6.147 30.0068-5.3913z" fill="#db9fe6"/><path d="m48.2164 87.3654c-.6796.3443-1.3836.7771-2.0846 1.219-9.731 6.0434-16.3047 5.3242-25.0209 10.6667-10.4747 6.4309-12.74211 14.9089-14.71088 26.4929h110.85398c-2.438-8.311-2.895-12.495-6.071-18.487-2.999-5.65-5.455-9.6913-15.186-13.4703-2.7277-1.0575-9.2892-4.8549-9.3623-5.0164.2651 3.5505-1.4933 11.2767-15.2747 11.8857-9.1032.408-23.4788-7.9786-23.1436-13.2906z" fill="#f9f3fa"/><path d="m45.8149 88.7734c-8.5852 3.2823-15.0004 4.1478-23.9269 9.6244-10.7185 6.5832-13.46131 15.4882-15.48798 27.3492h31.50328c-.6035-17.073 2.7672-29.5618 7.9116-36.9736z" fill="#b671c6"/><path d="m100.254 125.747h18.332c-.61-4.535-2.569-13.492-5.44-18.487-3.712-6.461-9.216-11.276-16.3262-14.2291-3.1909-1.3257-6.9181-2.2552-7.4789-2.6331-.1341-.0915-.0823.0609.2316.4876 12.0925 16.3746 10.6815 34.8616 10.6815 34.8616z" fill="#b671c6"/><path d="m47.2716 37.357c-.896 6.0952.3048 9.5939.7192 15.3265.7254 10.1333 3.1635 16.8625 5.4858 20.1691 4.0899 5.8484 11.6327 8.4054 15.8476 8.0092 9.3043-.8747 15.8202-8.3139 16.3901-17.7219.512-8.3993-.9143-9.6488-.1037-16.0915 2.0206-15.9786-3.4224-18.7428-16.6308-19.7363-11.2396-.8442-20.5897 2.438-21.7082 10.0449z" fill="#e7baef"/><g fill="#3f3d65"><path d="m81.6091 34.1022s3.9619-9.2892-4.2666-14.461c-9.0515-5.6868-20.3551-4.5714-28.8671 4.4526-4.4678 4.736-5.4065 3.9101-6.9089 2.6667-.9143 2.5356 1.8468 3.9192 1.8468 3.9192s-3.3524 1.0849-4.5501-1.9413c-1.2983 3.3523 1.2191 8.2651 4.4069 10.0419 7.2442 4.0228 22.5189-4.7482 26.7489-6.3025 7.0949-2.6118 11.5901 1.6244 11.5901 1.6244z"/><path d="m74.8313 29.7014s7.7531 2.2339 8.7375 8.7314c.7619 5.0256-.1798 8.6492.3688 11.3402.8746 4.3063 1.8529 4.2027 1.8529 4.2027s5.181 1.856 5.5071-5.7661.6827-21.9032-9.9718-24.381c-7.9848-1.8895-6.4945 5.8728-6.4945 5.8728z"/><path d="m47.9909 52.6835c.6461-11.1086-1.6244-12.1265.8807-19.1451 2.3284-6.5219 1.0423-5.2236-2.6301-2.237-3.6723 2.9867-2.5264 16.7863-.6918 20.8214 1.8347 4.035 2.4412.5607 2.4412.5607z"/></g><path d="m84.416 52.2781c.4084-.9325 2.7428-7.3142 4.8548-5.0712 1.2374 1.3105 1.3562 5.0804-.0396 8.1341-1.2952 2.8373-4.0625 5.2206-4.6354 5.3547-.573.1341-.1798-8.4176-.1798-8.4176z" fill="#e7baef"/><path d="m49.8895 55.914c-.5029-.8838-3.6815-5.3669-5.5589-2.9105-1.0941 1.4324.1006 4.6659 1.8134 7.5551 1.5878 2.6849 4.5897 4.7634 5.1809 4.8365.5912.0732-1.4354-9.4811-1.4354-9.4811z" fill="#e7baef"/></g></svg>

<svg width="128" height="128" viewBox="0 0 128 128" fill="none" xmlns="http://www.w3.org/2000/svg">
<mask id="mask0_457_1633" style="mask-type:alpha" maskUnits="userSpaceOnUse" x="0" y="1" width="128" height="126">
<path fill-rule="evenodd" clip-rule="evenodd" d="M62.6568 1.29053C81.8345 0.343353 100.44 8.86196 112.623 23.7593C125.02 38.9177 129.867 59.0407 125.525 78.1626C121.181 97.2912 108.203 113.493 90.4059 121.601C73.0828 129.493 53.3124 127.249 36.2298 118.845C19.3097 110.521 5.01224 96.3586 1.37341 77.7996C-2.15492 59.8042 7.0491 42.7013 18.4979 28.4081C29.8739 14.2057 44.5243 2.18608 62.6568 1.29053Z" fill="#EFF6F7"/>
</mask>
<g mask="url(#mask0_457_1633)">
<path fill-rule="evenodd" clip-rule="evenodd" d="M62.6568 1.29053C81.8345 0.343353 100.44 8.86196 112.623 23.7593C125.02 38.9177 129.867 59.0407 125.525 78.1626C121.181 97.2912 108.203 113.493 90.4059 121.601C73.0828 129.493 53.3124 127.249 36.2298 118.845C19.3097 110.521 5.01224 96.3586 1.37341 77.7996C-2.15492 59.8042 7.0491 42.7013 18.4979 28.4081C29.8739 14.2057 44.5243 2.18608 62.6568 1.29053Z" fill="#EFF6F7"/>
<path d="M56.9478 69.5399C56.9478 78.0031 54.3726 84.0465 46.1318 88.5783C36.093 94.0976 29.8271 93.9025 21.1109 99.245C10.6362 105.675 8.36879 114.154 6.40002 125.738H117.254C117.254 124.379 112.683 112.743 110.69 106.331C108.782 100.235 103.936 97.392 93.1596 92.9852C80.512 87.8042 81.6396 77.5399 83.0812 64.9258C84.3276 54.0244 56.9478 54.8412 56.9478 69.5399Z" fill="#E7BAEF"/>
<path d="M82.3375 78.4206C82.0572 74.9555 82.3924 71.1063 82.8495 66.9829C74.8739 67.9185 64.6644 67.9642 56.9966 68.6987C56.9753 68.9761 56.9478 69.2503 56.9478 69.5399C56.9478 75.3303 55.7288 79.9932 52.3307 83.8119C56.8442 88.5174 76.3886 89.9589 82.3375 78.4206Z" fill="#DB9FE6"/>
<path d="M48.2164 87.3654C47.5368 87.7097 46.8328 88.1425 46.1318 88.5844C36.4008 94.6278 29.8271 93.9086 21.1109 99.2511C10.6362 105.682 8.36879 114.16 6.40002 125.744H117.254C114.816 117.433 114.359 113.249 111.183 107.257C108.184 101.607 105.728 97.5657 95.997 93.7867C93.2693 92.7292 86.7078 88.9318 86.6347 88.7703C86.8998 92.3208 85.1414 100.047 71.36 100.656C62.2568 101.064 47.8812 92.6774 48.2164 87.3654Z" fill="#F9F3FA"/>
<path d="M45.8149 88.7734C37.2297 92.0557 30.8145 92.9212 21.888 98.3978C11.1695 104.981 8.42669 113.886 6.40002 125.747H37.9033C37.2998 108.674 40.6705 96.1852 45.8149 88.7734Z" fill="#B671C6"/>
<path d="M100.254 125.747H118.586C117.976 121.212 116.017 112.255 113.146 107.26C109.434 100.799 103.93 95.984 96.8198 93.0309C93.6289 91.7052 89.9017 90.7757 89.3409 90.3978C89.2068 90.3063 89.2586 90.4587 89.5725 90.8854C101.665 107.26 100.254 125.747 100.254 125.747Z" fill="#B671C6"/>
<path d="M47.2716 37.357C46.3756 43.4522 47.5764 46.9509 47.9908 52.6835C48.7162 62.8168 51.1543 69.546 53.4766 72.8526C57.5665 78.701 65.1093 81.258 69.3242 80.8618C78.6285 79.9871 85.1444 72.5479 85.7143 63.1399C86.2263 54.7406 84.8 53.4911 85.6106 47.0484C87.6312 31.0698 82.1882 28.3056 68.9798 27.3121C57.7402 26.4679 48.3901 29.7501 47.2716 37.357Z" fill="#E7BAEF"/>
<path d="M81.6091 34.1022C81.6091 34.1022 85.571 24.813 77.3425 19.6412C68.291 13.9544 56.9874 15.0698 48.4754 24.0938C44.0076 28.8298 43.0689 28.0039 41.5665 26.7605C40.6522 29.2961 43.4133 30.6797 43.4133 30.6797C43.4133 30.6797 40.0609 31.7646 38.8632 28.7384C37.5649 32.0907 40.0823 37.0035 43.2701 38.7803C50.5143 42.8031 65.789 34.0321 70.019 32.4778C77.1139 29.866 81.6091 34.1022 81.6091 34.1022Z" fill="#3F3D65"/>
<path d="M74.8313 29.7014C74.8313 29.7014 82.5844 31.9353 83.5688 38.4328C84.3307 43.4584 83.389 47.082 83.9376 49.773C84.8122 54.0793 85.7905 53.9757 85.7905 53.9757C85.7905 53.9757 90.9715 55.8317 91.2976 48.2096C91.6237 40.5875 91.9803 26.3064 81.3258 23.8286C73.341 21.9391 74.8313 29.7014 74.8313 29.7014Z" fill="#3F3D65"/>
<path d="M47.9909 52.6835C48.637 41.5749 46.3665 40.557 48.8716 33.5384C51.2 27.0165 49.9139 28.3148 46.2415 31.3014C42.5692 34.2881 43.7151 48.0877 45.5497 52.1228C47.3844 56.1578 47.9909 52.6835 47.9909 52.6835Z" fill="#3F3D65"/>
<path d="M84.416 52.2781C84.8244 51.3456 87.1588 44.9639 89.2708 47.2069C90.5082 48.5174 90.627 52.2873 89.2312 55.341C87.936 58.1783 85.1687 60.5616 84.5958 60.6957C84.0228 60.8298 84.416 52.2781 84.416 52.2781Z" fill="#E7BAEF"/>
<path d="M49.8895 55.914C49.3866 55.0302 46.208 50.5471 44.3306 53.0035C43.2365 54.4359 44.4312 57.6694 46.144 60.5586C47.7318 63.2435 50.7337 65.322 51.3249 65.3951C51.9161 65.4683 49.8895 55.914 49.8895 55.914Z" fill="#E7BAEF"/>
</g>
</svg>
